X:27
T:Correl Glen
R:jig
C:Jim McGraw
O:Co. Fermanagh, Ireland
S:http://www.cranfordpub.com/recordings/mcgraw.htm
D:Melodious Accord, Jim McGraw
Z:psc
H:An area of outstanding beauty which is part of the Ulster Way outside Derrygonnelly. Raging waterfalls, scenic hills are a most enjoyable and peaceful weekend retreat for many.
L:1/8
Q:300
M:6/8
K:A
z|EAc efe|dcB cea|fed cBA|B2 A =GFE| 
EAc efe|dcB c2 E|F/G/AF E<AD|C<EB, A,2:|
|:c/d/|eag aec|fga ecA|fga ecA|B2 A =GFE|
F/G/AF GAB|ecA Bcd|c2 A Bcd|efg a2:|
